svgs/light/square-rss.svg

<svg xmlns="http://www.w3.org/2000/svg" viewBox="0 0 448 512"><!--! Font Awesome Pro 6.1.1 by @fontawesome - https://fontawesome.com License - https://fontawesome.com/license (Commercial License) Copyright 2022 Fonticons, Inc. --><path d="M80 128C71.16 128 64 135.2 64 144S71.16 160 80 160C212.3 160 320 267.7 320 400c0 8.844 7.156 16 16 16s16-7.156 16-16C352 250 229.1 128 80 128zM80 224C71.16 224 64 231.2 64 240S71.16 256 80 256c79.41 0 144 64.59 144 144c0 8.844 7.156 16 16 16s16-7.156 16-16C256 302.1 177 224 80 224zM384 32H64C28.65 32 0 60.66 0 96v320c0 35.34 28.65 64 64 64h320c35.35 0 64-28.66 64-64V96C448 60.66 419.3 32 384 32zM416 416c0 17.64-14.36 32-32 32H64c-17.64 0-32-14.36-32-32V96c0-17.64 14.36-32 32-32h320c17.64 0 32 14.36 32 32V416zM112 320C85.49 320 64 341.5 64 368S85.49 416 112 416S160 394.5 160 368S138.5 320 112 320zM112 384C103.2 384 96 376.8 96 368S103.2 352 112 352S128 359.2 128 368S120.8 384 112 384z"/></svg>

<svg xmlns="http://www.w3.org/2000/svg" viewBox="0 0 448 512"><!--! Font Awesome Pro 6.4.2 by @fontawesome - https://fontawesome.com License - https://fontawesome.com/license (Commercial License) Copyright 2023 Fonticons, Inc. --><path d="M384 64c17.7 0 32 14.3 32 32V416c0 17.7-14.3 32-32 32H64c-17.7 0-32-14.3-32-32V96c0-17.7 14.3-32 32-32H384zM64 32C28.7 32 0 60.7 0 96V416c0 35.3 28.7 64 64 64H384c35.3 0 64-28.7 64-64V96c0-35.3-28.7-64-64-64H64zm48 320a16 16 0 1 1 0 32 16 16 0 1 1 0-32zm0 64a48 48 0 1 0 0-96 48 48 0 1 0 0 96zM80 128c-8.8 0-16 7.2-16 16s7.2 16 16 16c132.5 0 240 107.5 240 240c0 8.8 7.2 16 16 16s16-7.2 16-16c0-150.2-121.8-272-272-272zm0 96c-8.8 0-16 7.2-16 16s7.2 16 16 16c79.5 0 144 64.5 144 144c0 8.8 7.2 16 16 16s16-7.2 16-16c0-97.2-78.8-176-176-176z"/></svg>
